X:1
T:Christmas Eve (Zundel), 66.66.88
T:Christmas Eve (Zundel), 66.66.88
T:John Zundel, 1855
T:Public Domain Courtesy of the Cyber Hymnal™
C:John Zundel, 1855
Z:Public Domain
Z:Courtesy of the Cyber Hymnal™
%%score ( 1 2 ) ( 3 4 )
L:1/8
Q:1/4=150
M:3/2
K:D
V:1 treble 
V:2 treble 
V:3 bass 
V:4 bass 
V:1
 d4 | d3 d d4 d4 | D8 ([DF]2 [EG]2) | ([FA]3 [GB] [FA]2) [DF]2 [EG]2 [GB]2 | [FA]8 ([Dd]2 [GB]2) | %5
 ([FA]3 [GB] [FA]2) [DF]2 [EG]2 [GB]2 | [FA]8 D4 | E2 F2 G2 A2 B2 c2 | d8 [Gc]4 | [Fd]8 [^GB]4 | %10
 A8 [Gc]4 | [Fd]8 [^Gc]4 | A8 [Ad]4 | [Be]8 [Bd]4 | [Ac]8 [Ad]4 | [Ge]8 [Gc]4 | [Fd]12 |] %17
V:2
 d4 | d3 d d4 d4 | x12 | x12 | x12 | x12 | x8 D4 | (E2 F2 G2) A2 B2 c2 | x12 | x12 | x12 | x12 | %12
 x12 | x12 | x12 | x12 | x12 |] %17
V:3
 D4 | D3 D D4 D4 | D,8 D,4 | D,6 D,2 D,2 D,2 | D,8 D,4 | D,6 D,2 D,2 D,2 | D,8 D,4 | %7
 E,2 F,2 G,2 A,2 B,2 C2 | D8 [^A,E]4 | [B,D]8 [E,D]4 | [A,C]8 E4 | [B,D]8 [E,D]4 | [A,C]8 [F,F]4 | %13
 [G,E]8 [G,=F]4 | [G,E]8 [F,D]4 | [E,B,]8 A,4 | [D,A,]12 |] %17
V:4
 D4 | D3 D D4 D4 | x8 D,4 | D,6 D,2 D,2 D,2 | x8 D,4 | D,6 D,2 D,2 D,2 | x8 D,4 | %7
 (E,2 F,2 G,2) A,2 B,2 C2 | x12 | x12 | x8 (A,2 ^A,2) | x12 | x12 | x12 | x12 | x8 A,4 | x12 |] %17

